src/ui/assets/img/add-user.svg

<svg width="18" height="18" viewBox="0 0 18 18" fill="none" xmlns="http://www.w3.org/2000/svg">
    <path fill-rule="evenodd" clip-rule="evenodd" d="M5.42773 3.6C5.42773 5.58822 7.02672 7.2 8.99916 7.2C10.9716 7.2 12.5706 5.58822 12.5706 3.6C12.5706 1.61177 10.9716 0 8.99916 0C7.02672 0 5.42773 1.61177 5.42773 3.6ZM12.2187 9.51301C11.0629 10.1792 10.2849 11.4273 10.2849 12.8571C10.2849 14.9874 12.0118 16.7143 14.142 16.7143C14.5928 16.7143 15.0256 16.6369 15.4277 16.4948V17.28C15.4277 17.6776 15.1079 18 14.7134 18H3.28488C2.89039 18 2.57059 17.6776 2.57059 17.28V15.12C2.57453 11.5428 5.45039 8.64397 8.99916 8.64C10.1724 8.64131 11.272 8.95901 12.2187 9.51301Z" fill="#0055FF"/>
    <path d="M12.27 12.158H13.4434V10.9847C13.4434 10.6002 13.758 10.2856 14.1424 10.2856C14.5269 10.2856 14.8415 10.6002 14.8415 10.9847V12.158H16.0148C16.3993 12.158 16.7139 12.4726 16.7139 12.8571C16.7139 13.2415 16.3993 13.5561 16.0148 13.5561H14.8415V14.7295C14.8415 15.1139 14.5269 15.4285 14.1424 15.4285C13.758 15.4285 13.4434 15.1139 13.4434 14.7295V13.5561H12.27C11.8856 13.5561 11.571 13.2415 11.571 12.8571C11.571 12.4726 11.8856 12.158 12.27 12.158Z" fill="#0055FF"/>
</svg>

<svg fill="none" height="18" width="18" xmlns="http://www.w3.org/2000/svg"><g fill="#05f"><path clip-rule="evenodd" d="M5.428 3.6c0 1.988 1.599 3.6 3.571 3.6s3.572-1.612 3.572-3.6S10.97 0 8.999 0 5.428 1.612 5.428 3.6zm6.79 5.913a3.857 3.857 0 0 0 3.209 6.982v.785c0 .398-.32.72-.714.72H3.285a.717.717 0 0 1-.714-.72v-2.16c.004-3.577 2.88-6.476 6.428-6.48a6.367 6.367 0 0 1 3.22.873z" fill-rule="evenodd"/><path d="M12.27 12.158h1.173v-1.173c0-.385.315-.7.7-.7.384 0 .698.315.698.7v1.173h1.174c.384 0 .699.315.699.7a.701.701 0 0 1-.7.698h-1.172v1.173a.701.701 0 0 1-.7.7.701.701 0 0 1-.699-.7v-1.173H12.27a.701.701 0 0 1-.699-.699c0-.384.315-.699.699-.699z"/></g></svg>
